X: 36450
T: Second Star
R: hornpipe
M: 4/4
K: Gmajor
|:(3B,C^C|"G"D>GB>A G>FE>D|"C"C>EA>B c>BA>G|"D"F>Af>e (3ded c>d|"G"B>cA>B G>AF>G|
"G"D>GB>A G>FE>D|"C"C>EA>B c>BA>G|"D"F>dc>A F>DC>A,|"G"G,2 G2 G2:|
|:(3def|"G"g2 B,>D G>Bd>g|"C"e2 C>E G>ce>g|"D"d2 A,>C F>Ac>d|"G"B2 G,>B, D>GB>d|
"G"g2 B,>D G>Bd>g|"C"e2 C>E G>ce>g|"D"f>ed>^c =c>AF>A|"G"G2g2G2:|
|:"G"B,>C|(3DCB, D>G B>G D>G|"C"(3EDC E>G c>G E>G|"D"F>D F>A c>A F>A|"G"(3GBA (3GFE D2 B,>C|
"G"(3DCB, D>G B>G D>G|"C"(3EDC E>G c>G E>G|"D"(3FAd f>e d>^c =c>A|"G"(3GBd (3gdB G2:|
|:(3def|"G"g2 (3G,A,G, (3B,DG (3Bdg|"C"e2 (3CB,C (3G,CE (3Gce|"D"d2 (3A,G,A, (3CEG (3FAd|"G"B2 (3GFG (3B,DG (3Bdf|
"G"g2 (3G,A,G, (3B,DG (3Bdg|"C"e2 (3CB,C (3G,CE (3Gce|"D"f>e d>^c =c>A F>A|"G"(3GBd (3gdB G2:|

